X: 20571
T: Love Slip
%R: air
B: James Oswald "The Caledonian Pocket Companion" v.2 p.57 #1
N: Most of page, but top 5 (of 12) staffs are continued from p.56
Z: 2019 John Chambers <jc:trillian.mit.edu>
N: Bar 12 has 5 8th notes; removed dot on c to fix it.
M: 2/4
L: 1/16
K: D
%%slurgraces 1
%%graceslurs 1
"_Slow"A2 |\
(F/G/A3) A4 | A6 a2 | {a}g2f2 {f}e2d2 | (c/d/e3) z2A2 |\
(F/G/A3) A4 | A6 b2 | (af3)(Te3d) | (Bd3) z2B2 |\
(Ad3)(cg3) | (Tf4 e2)a2 |
Ta3(^g/a/) b2d2 | {d}c4 z2B2 |\
A6 a2 | a4 (gfed) | c4 (TB3A) | A4 z2a2 |\
(^g/f/e3) z2d'2 | c'2(ba) (^gf)(ed) | c4 (TB3A) | A6 :|
|: a2 |\
(A3B)(B3c) | (c3d)(d3e) | (e3f)(f3g) | g4 z2(fe) |\
(dB3) z2b2 | b4 (agfe) | d4 (Tc3B) | B4 z2(AG) |\
(F/G/A3) A4 | A6 a2 |
(g2f2)(e2d2) | (c/d/e3) z2e2 |\
(f/g/a3) a4 | Ta6 d'2 | (fgab) a2a2 | a4 z2a2 |\
.b(gfg) .a(fef) | (gabc') (d'bag) | f4 {a}g2(fe) | d6 :|


